X: 6
T: Harvest Home, The
B: jims roots
B: ralph
B: begged borrowed and stolen
B: steve tunes
M:4/4
L:1/8
R: hornpipe
Q: 1/4=100
K:Dmaj
V:1 
AF|:"D"DAFA DAFA | defe dcBA |"A"eAfA gAfA|
(3efe (3dcB (3ABA (3GFE | "D"DAFA DAFA | defe dcBA |
"A"eAfA gfec | [1 "D"d2 f2 d2 AF:| [2" D"d2 f2 d2 cd|]
|:"A"eA (3AGA "D"fA (3AGA | "G"gAfA "A"eA (3AGA | eAfA gAfA|
(3efe (3dcB "A7"(3ABA (3GFE | "D"DAFA DAFA | defe dcBA|
"A"eAfA gfec |[1"D"d2 f2 d2 cd:| [2"D"d2 f2 d4|]
% abcbook-tune_id 6298c25d81318194eef5bec2


% abcbook-boost 0
% abcbook-tablature 
% abcbook-transpose 
% abcbook-lastupdated 1666655496451
% abcbook-soundfonts 
% abcbook-repeats 1
% Bryce
% <a href="http://thesession.org/tunes/49#setting21792" rel="nofollow">http://thesession.org/tunes/49#setting21792</a>

